X: 1
T:Morton's -- Reel
M:C|
L:1/8
R:reel
B:Ryan's Mammoth Collection
Z:Contributed by Ray Davies,  ray:davies99.freeserve.co.uk
K:G
uD2|GBGB AcAc|BcdB G2(AB)|cAcA BGBG|ABAF GFED|
GBGB AcAc|BcdB c2(Bd)|egfa gedc|B2 G2 G2::
Bgg2 dBB2|Bgg2 dBB2|eaaa a2 a2|ABAF GFED|
GBGB AcAc|BcdB c2(Bd)|egfa gedc|B2 G2 G2:|
